X:6
T:Boys of Ballycastle
Z: id:dc-hornpipe-6
M:C|
L:1/8
K:E Minor
ef|gfed edBd|edeg B2BA|G3A BABd|e2A2 A2ga|!
bagf gfed|edeg B2BA|G3A BcBA|G2E2 E2:|!
gf|e2B2 B2gf|eBBA B2gf|e3f gfga|b2e2 e2ga|!
bagf gfed|edeg B2BA|G3A BcBA|G2E2 E2:|!

